X:1
T: The Birth of Seven Peeps
L:1/4
M: 2/2
C: David & Joey Kimdon
K:D
"D"D4|D2D3/2D/2+breath+|" A"E4| E2 D3/2E/2+breath+|" F#m"F2E2|"Bm"D4+breath+|
"G"G2D3/2E/2|"Bm"F3D+breath+|" D/F#"A4|"Gmaj7"F2GE|"Asus4"D4|"A"E3 A+breath+|
"G"B2(3BAG|"Bm"FDzE/2F/2|"G"G2D3/2E/2|"D/F#"F2F3/2G/2|"A/E"A2A+breath+c|"G/D"(d2"G/B"d2)
|"G"B2BA|"Gm"E2GF|"A7"E2C2|"D"D4|] 
